;FLAVOR:Marlin
;TIME:5888
;Filament used: 3.81641m
;Layer height: 0.2
;MINX:110.104
;MINY:112.198
;MINZ:0.3
;MAXX:169.778
;MAXY:142.802
;MAXZ:47.9
;Generated with Sovol Slicer 1.3.0
M140 S60
M105
M190 S60
M104 S200
M105
M109 S200
M82 ;absolute extrusion mode
M201 X500.00 Y500.00 Z100.00 E5000.00 ;Setup machine max acceleration
M203 X500.00 Y500.00 Z10.00 E50.00 ;Setup machine max feedrate
M204 P500.00 R1000.00 T500.00 ;Setup Print/Retract/Travel acceleration
M205 X8.00 Y8.00 Z0.40 E5.00 ;Setup Jerk
M220 S100 ;Reset Feedrate
M221 S100 ;Reset Flowrate

G28 ;Home

G92 E0 ;Reset Extruder
G1 Z2.0 F3000 ;Move Z Axis up
G1 X10.1 Y20 Z0.28 F5000.0 ;Move to start position
G1 X10.1 Y200.0 Z0.28 F1500.0 E15 ;Draw the first line
G1 X10.4 Y200.0 Z0.28 F5000.0 ;Move to side a little
G1 X10.4 Y20 Z0.28 F1500.0 E30 ;Draw the second line
G92 E0 ;Reset Extruder
G1 Z2.0 F3000 ;Move Z Axis up

G92 E0
G92 E0
G1 F2400 E-3
;LAYER_COUNT:239
;LAYER:0
M107
G0 F3600 X111.968 Y118.327 Z0.3
;TYPE:SKIRT
G1 F2400 E0
G1 F1500 X112.374 Y118.002 E0.02595
G1 X112.793 Y117.712 E0.05137
G1 X113.282 Y117.428 E0.07958
G1 X113.894 Y117.183 E0.11247
G1 X114.201 Y117.08 E0.12862
G1 X114.882 Y116.919 E0.16354
G1 X115.435 Y116.848 E0.19135
G1 X116.337 Y116.778 E0.23649
G1 X138.372 Y115.433 E1.33787
G1 X139.181 Y115.396 E1.37827
G1 X139.322 Y115.392 E1.38531
G1 X140.181 Y115.383 E1.42816
G1 X140.341 Y115.385 E1.43615
G1 X140.918 Y115.402 E1.46495
G1 X141.081 Y115.41 E1.47309
G1 X141.777 Y115.459 E1.5079
G1 X142.37 Y115.521 E1.53764
G1 X143.02 Y115.615 E1.57041
G1 X143.174 Y115.641 E1.5782
G1 X143.899 Y115.777 E1.615
G1 X144.468 Y115.901 E1.64406
G1 X144.634 Y115.942 E1.65259
G1 X145.23 Y116.102 E1.68337
G1 X145.365 Y116.141 E1.69039
G1 X145.887 Y116.301 E1.71762
G1 X146.423 Y116.483 E1.74586
G1 X146.565 Y116.534 E1.75339
G1 X147.24 Y116.795 E1.7895
G1 X147.814 Y117.041 E1.82065
G1 X148.312 Y117.274 E1.84808
G1 X148.432 Y117.333 E1.85476
G1 X148.921 Y117.582 E1.88213
G1 X149.489 Y117.895 E1.91449
G1 X149.93 Y118.157 E1.94008
G1 X150.047 Y118.23 E1.94696
G1 X150.697 Y118.651 E1.9856
G1 X151.199 Y118.999 E2.01607
G1 X151.61 Y119.305 E2.04163
G1 X151.743 Y119.409 E2.05006
G1 X152.152 Y119.743 E2.0764
G1 X152.629 Y120.157 E2.10791
G1 X152.733 Y120.252 E2.11494
G1 X153.368 Y120.849 E2.15842
G1 X153.684 Y121.169 E2.18086
G1 X154.144 Y121.668 E2.21472
G1 X154.25 Y121.788 E2.22271
G1 X154.71 Y122.329 E2.25814
G1 X154.805 Y122.445 E2.26562
G1 X155.172 Y122.911 E2.29521
G1 X155.516 Y123.378 E2.32415
G1 X155.801 Y123.795 E2.34935
G1 X155.878 Y123.913 E2.35637
G1 X156.316 Y124.61 E2.39744
G1 X156.598 Y125.145 E2.42762
G1 X156.803 Y125.617 E2.45329
G1 X156.991 Y126.15 E2.48149
G1 X157.118 Y126.857 E2.51732
G1 X157.142 Y127.128 E2.5309
G1 X157.145 Y127.8 E2.56442
G1 X157.125 Y128.05 E2.57694
G1 X156.992 Y128.804 E2.61513
G1 X156.911 Y129.095 E2.6302
G1 X156.721 Y129.627 E2.65839
G1 X156.398 Y130.252 E2.69349
G1 X156.081 Y130.782 E2.7243
G1 X155.76 Y131.265 E2.75323
G1 X155.681 Y131.38 E2.76019
G1 X155.265 Y131.961 E2.79584
G1 X155.169 Y132.089 E2.80382
G1 X154.754 Y132.622 E2.83753
G1 X154.414 Y133.032 E2.8641
G1 X154.322 Y133.138 E2.8711
G1 X153.98 Y133.518 E2.89661
G1 X153.888 Y133.617 E2.90335
G1 X153.497 Y134.023 E2.93147
G1 X153.079 Y134.431 E2.96061
G1 X152.967 Y134.536 E2.96827
G1 X152.385 Y135.058 E3.00728
G1 X151.987 Y135.395 E3.03329
G1 X151.536 Y135.753 E3.06202
G1 X151.047 Y136.107 E3.09214
G1 X150.273 Y136.625 E3.1386
G1 X150.134 Y136.714 E3.14684
G1 X149.658 Y137.005 E3.17467
G1 X149.19 Y137.273 E3.20158
G1 X149.073 Y137.337 E3.20823
G1 X148.615 Y137.577 E3.23403
G1 X148.126 Y137.816 E3.26118
G1 X147.991 Y137.878 E3.26859
G1 X147.289 Y138.186 E3.30684
G1 X146.774 Y138.391 E3.33449
G1 X146.223 Y138.588 E3.36369
G1 X146.082 Y138.635 E3.3711
G1 X145.348 Y138.867 E3.40951
G1 X144.879 Y138.997 E3.43379
G1 X144.041 Y139.197 E3.47677
G1 X143.576 Y139.291 E3.50044
G1 X142.925 Y139.403 E3.53339
G1 X142.361 Y139.48 E3.56179
G1 X141.617 Y139.555 E3.5991
G1 X141.468 Y139.567 E3.60656
G1 X140.962 Y139.599 E3.63185
G1 X140.34 Y139.619 E3.6629
G1 X140.198 Y139.62 E3.66999
G1 X139.466 Y139.614 E3.70651
G1 X139.339 Y139.611 E3.71284
G1 X138.556 Y139.579 E3.75194
G1 X116.128 Y138.207 E4.87297
G1 X115.59 Y138.166 E4.89989
G1 X115.228 Y138.122 E4.91808
G1 X114.6 Y138.016 E4.94986
G1 X114.051 Y137.883 E4.97804
G1 X113.492 Y137.657 E5.00812
G1 X112.971 Y137.393 E5.03726
G1 X112.492 Y137.093 E5.06546
G1 X111.814 Y136.503 E5.1103
G1 X111.532 Y136.216 E5.13037
G1 X111.058 Y135.582 E5.16986
G1 X110.766 Y135.081 E5.19879
G1 X110.524 Y134.57 E5.227
G1 X110.365 Y134.075 E5.25294
G1 X110.237 Y133.553 E5.27975
G1 X110.14 Y132.931 E5.31116
G1 X110.121 Y132.583 E5.32855
G1 X110.104 Y131.422 E5.38648
G1 X110.104 Y123.243 E5.79453
G1 X110.114 Y122.558 E5.82871
G1 X110.194 Y121.739 E5.86976
G1 X110.292 Y121.218 E5.89621
G1 X110.485 Y120.579 E5.92951
G1 X110.725 Y120.004 E5.9606
G1 X110.991 Y119.505 E5.98881
G1 X111.282 Y119.097 E6.01381
G1 X111.578 Y118.736 E6.0371
G1 X111.968 Y118.327 E6.0653
G0 F3600 X112.258 Y118.605
G1 F1500 X112.747 Y118.227 E6.09613
G1 X113.018 Y118.043 E6.11248
G1 X113.483 Y117.775 E6.13925
G1 X114.029 Y117.559 E6.16855
G1 X114.326 Y117.459 E6.18418
G1 X114.939 Y117.315 E6.2156
G1 X115.466 Y117.247 E6.24211
G1 X116.362 Y117.178 E6.28694
G1 X138.391 Y115.833 E7.38802
G1 X139.2 Y115.796 E7.42842
G1 X139.326 Y115.792 E7.43471
G1 X140.185 Y115.783 E7.47757
G1 X140.329 Y115.785 E7.48475
G1 X140.906 Y115.802 E7.51355
G1 X141.053 Y115.809 E7.52089
G1 X141.749 Y115.858 E7.5557
G1 X142.326 Y115.919 E7.58465
G1 X142.453 Y115.935 E7.59104
G1 X142.962 Y116.01 E7.61671
G1 X143.101 Y116.034 E7.62374
G1 X143.946 Y116.194 E7.66665
G1 X144.53 Y116.328 E7.69654
G1 X145.126 Y116.488 E7.72733
G1 X145.248 Y116.523 E7.73366
G1 X145.77 Y116.683 E7.7609
G1 X146.293 Y116.861 E7.78846
G1 X146.42 Y116.907 E7.7952
G1 X147.095 Y117.168 E7.83131
G1 X147.645 Y117.403 E7.86115
G1 X148.143 Y117.636 E7.88858
G1 X148.251 Y117.689 E7.89458
G1 X148.74 Y117.938 E7.92196
G1 X149.295 Y118.244 E7.95357
G1 X149.829 Y118.565 E7.98466
G1 X150.479 Y118.986 E8.0233
G1 X150.969 Y119.327 E8.05308
G1 X151.49 Y119.719 E8.08561
G1 X151.899 Y120.053 E8.11195
G1 X152.365 Y120.458 E8.14275
G1 X152.459 Y120.543 E8.14908
G1 X153.094 Y121.14 E8.19256
G1 X153.39 Y121.44 E8.21359
G1 X153.85 Y121.939 E8.24744
G1 X153.946 Y122.047 E8.25465
G1 X154.406 Y122.588 E8.29008
G1 X154.491 Y122.693 E8.29682
G1 X154.858 Y123.159 E8.32642
G1 X155.192 Y123.614 E8.35457
G1 X155.539 Y124.126 E8.38543
G1 X155.977 Y124.823 E8.4265
G1 X156.231 Y125.304 E8.45364
G1 X156.436 Y125.776 E8.47931
G1 X156.612 Y126.282 E8.50604
G1 X156.72 Y126.892 E8.53695
G1 X156.744 Y127.163 E8.55052
G1 X156.747 Y127.768 E8.5807
G1 X156.727 Y128.018 E8.59322
G1 X156.606 Y128.696 E8.62758
G1 X156.525 Y128.987 E8.64265
G1 X156.343 Y129.492 E8.66943
G1 X156.046 Y130.06 E8.7014
G1 X155.748 Y130.561 E8.73049
G1 X155.427 Y131.044 E8.75942
G1 X155.356 Y131.147 E8.76566
G1 X154.94 Y131.728 E8.80131
G1 X154.854 Y131.844 E8.80852
G1 X154.439 Y132.377 E8.84222
G1 X154.108 Y132.775 E8.86804
G1 X154.025 Y132.87 E8.87434
G1 X153.683 Y133.25 E8.89984
G1 X153.6 Y133.339 E8.90591
G1 X153.121 Y133.834 E8.94028
G1 X152.7 Y134.238 E8.96939
G1 X152.118 Y134.76 E9.00839
G1 X151.729 Y135.089 E9.03381
G1 X151.288 Y135.439 E9.0619
G1 X150.824 Y135.775 E9.09048
G1 X150.05 Y136.293 E9.13695
G1 X149.926 Y136.372 E9.14428
G1 X149.349 Y136.723 E9.17798
G1 X148.887 Y136.983 E9.20442
G1 X148.429 Y137.223 E9.23022
G1 X147.952 Y137.455 E9.25668
G1 X147.83 Y137.512 E9.2634
G1 X147.128 Y137.82 E9.30165
G1 X146.639 Y138.014 E9.32789
G1 X146.088 Y138.211 E9.35709
G1 X145.961 Y138.254 E9.36378
G1 X145.227 Y138.486 E9.40218
G1 X144.785 Y138.608 E9.42506
G1 X143.959 Y138.805 E9.46742
G1 X143.508 Y138.897 E9.49039
G1 X142.857 Y139.009 E9.52334
G1 X142.321 Y139.082 E9.55033
G1 X141.577 Y139.157 E9.58764
G1 X141.443 Y139.168 E9.59435
G1 X140.937 Y139.2 E9.61964
G1 X140.329 Y139.219 E9.64999
G1 X140.201 Y139.22 E9.65637
G1 X139.469 Y139.214 E9.6929
G1 X138.656 Y139.183 E9.73349
G1 X116.158 Y137.809 E10.85801
G1 X115.62 Y137.768 E10.88493
G1 X115.295 Y137.728 E10.90126
G1 X114.667 Y137.622 E10.93304
G1 X114.146 Y137.493 E10.95981
G1 X113.669 Y137.299 E10.9855
G1 X113.159 Y137.04 E11.01404
G1 X112.705 Y136.753 E11.04084
G1 X112.085 Y136.209 E11.08199
G1 X111.827 Y135.946 E11.10037
G1 X111.401 Y135.376 E11.13587
G1 X111.115 Y134.885 E11.16422
G1 X110.887 Y134.399 E11.191
G1 X110.709 Y133.811 E11.22165
G1 X110.626 Y133.461 E11.2396
G1 X110.539 Y132.901 E11.26787
G1 X110.521 Y132.577 E11.28406
G1 X110.504 Y131.416 E11.34199
G1 X110.504 Y123.248 E11.74949
G1 X110.514 Y122.563 E11.78367
G1 X110.591 Y121.791 E11.82238
G1 X110.683 Y121.301 E11.84725
G1 X110.857 Y120.726 E11.87722
G1 X111.091 Y120.167 E11.90746
G1 X111.345 Y119.694 E11.93424
G1 X111.683 Y119.236 E11.96264
G1 X111.886 Y118.991 E11.97851
G1 X112.258 Y118.605 E12.00526
G0 F3600 X112.742 Y118.725
G1 F1500 X113.242 Y118.374 E12.03574
G1 X113.682 Y118.124 E12.06098
G1 X114.164 Y117.935 E12.08681
G1 X114.452 Y117.839 E12.10196
G1 X114.996 Y117.711 E12.12984
G1 X115.497 Y117.646 E12.15505
G1 X116.386 Y117.577 E12.19953
G1 X138.409 Y116.232 E13.30031
G1 X139.218 Y116.195 E13.34071
G1 X139.33 Y116.192 E13.3463
G1 X140.189 Y116.183 E13.38916
G1 X140.317 Y116.184 E13.39555
G1 X140.894 Y116.201 E13.42435
G1 X141.025 Y116.208 E13.43089
G1 X141.721 Y116.257 E13.4657
G1 X142.281 Y116.317 E13.4938
G1 X142.394 Y116.331 E13.49948
G1 X142.903 Y116.406 E13.52515
G1 X143.027 Y116.427 E13.53142
G1 X143.752 Y116.563 E13.56822
G1 X144.293 Y116.682 E13.59586
G1 X144.427 Y116.714 E13.60273
G1 X145.023 Y116.874 E13.63352
G1 X145.131 Y116.905 E13.63913
G1 X145.653 Y117.065 E13.66637
G1 X146.163 Y117.239 E13.69325
G1 X146.276 Y117.28 E13.69925
G1 X146.951 Y117.541 E13.73535
G1 X147.475 Y117.766 E13.7638
G1 X148.069 Y118.045 E13.79654
G1 X148.558 Y118.294 E13.82392
G1 X149.1 Y118.594 E13.85483
G1 X149.612 Y118.901 E13.88461
G1 X150.262 Y119.322 E13.92325
G1 X150.739 Y119.654 E13.95224
G1 X151.237 Y120.028 E13.98331
G1 X151.646 Y120.362 E14.00966
G1 X152.102 Y120.759 E14.03982
G1 X152.82 Y121.432 E14.08892
G1 X153.096 Y121.711 E14.1085
G1 X153.556 Y122.21 E14.14236
G1 X153.641 Y122.306 E14.14875
G1 X154.101 Y122.847 E14.18418
G1 X154.177 Y122.94 E14.19017
G1 X154.544 Y123.406 E14.21977
G1 X154.869 Y123.849 E14.24718
G1 X155.2 Y124.338 E14.27664
G1 X155.638 Y125.035 E14.31771
G1 X155.864 Y125.463 E14.34186
G1 X156.069 Y125.935 E14.36753
G1 X156.233 Y126.413 E14.39274
G1 X156.322 Y126.928 E14.41882
G1 X156.346 Y127.199 E14.43239
G1 X156.348 Y127.736 E14.45918
G1 X156.328 Y127.986 E14.47169
G1 X156.221 Y128.589 E14.50225
G1 X156.14 Y128.88 E14.51732
G1 X155.868 Y129.551 E14.55344
G1 X155.509 Y130.189 E14.58996
G1 X155.415 Y130.339 E14.59879
G1 X155.031 Y130.914 E14.63329
G1 X154.615 Y131.495 E14.66894
G1 X154.538 Y131.598 E14.67535
G1 X154.123 Y132.131 E14.70906
G1 X153.801 Y132.518 E14.73417
G1 X153.728 Y132.603 E14.73976
G1 X153.386 Y132.983 E14.76527
G1 X152.921 Y133.468 E14.79879
G1 X152.523 Y133.856 E14.82652
G1 X152.433 Y133.94 E14.83266
G1 X151.851 Y134.462 E14.87167
G1 X151.397 Y134.844 E14.90127
G1 X150.928 Y135.209 E14.93092
G1 X150.602 Y135.442 E14.95091
G1 X149.828 Y135.96 E14.99737
G1 X149.717 Y136.031 E15.00395
G1 X149.241 Y136.322 E15.03178
G1 X148.795 Y136.577 E15.05741
G1 X148.243 Y136.868 E15.08854
G1 X147.778 Y137.095 E15.11436
G1 X147.67 Y137.145 E15.1203
G1 X146.968 Y137.453 E15.15854
G1 X146.504 Y137.637 E15.18345
G1 X145.953 Y137.834 E15.21264
G1 X145.84 Y137.872 E15.21859
G1 X145.106 Y138.104 E15.25699
G1 X144.692 Y138.219 E15.27843
G1 X143.877 Y138.414 E15.32024
G1 X143.441 Y138.503 E15.34244
G1 X142.79 Y138.615 E15.37539
G1 X142.281 Y138.684 E15.40102
G1 X141.537 Y138.759 E15.43833
G1 X141.418 Y138.769 E15.44428
G1 X140.912 Y138.801 E15.46958
G1 X140.318 Y138.819 E15.49923
G1 X140.205 Y138.82 E15.50486
G1 X139.473 Y138.814 E15.54139
G1 X138.605 Y138.78 E15.58472
G1 X116.189 Y137.41 E16.70515
G1 X115.651 Y137.369 E16.73207
G1 X115.361 Y137.333 E16.74665
G1 X114.733 Y137.227 E16.77842
G1 X114.243 Y137.104 E16.80363
G1 X113.556 Y136.796 E16.84119
G1 X113.347 Y136.686 E16.85297
G1 X112.92 Y136.415 E16.8782
G1 X112.356 Y135.915 E16.91581
G1 X112.122 Y135.676 E16.93249
G1 X111.743 Y135.169 E16.96407
G1 X111.463 Y134.688 E16.99184
G1 X111.173 Y133.993 E17.02941
G1 X111.015 Y133.368 E17.06157
G1 X110.938 Y132.871 E17.08666
G1 X110.921 Y132.571 E17.10166
G1 X110.904 Y131.41 E17.15958
G1 X110.904 Y123.254 E17.56649
G1 X110.914 Y122.569 E17.60067
G1 X110.987 Y121.842 E17.63712
G1 X111.074 Y121.385 E17.66033
G1 X111.229 Y120.873 E17.68702
G1 X111.456 Y120.329 E17.71643
G1 X111.841 Y119.683 E17.75394
G1 X112.194 Y119.246 E17.78197
G1 X112.742 Y118.725 E17.8197
G1 F2400 E14.8197
;MESH:3DBenchy.stl
G0 F3600 X114.314 Y120.706
G0 X114.937 Y121.592
G0 X119.434 Y124.621
G0 X119.784 Y125.503
G0 X119.82 Y129.364
G0 X119.51 Y130.176
G0 X118.533 Y131.036
;TYPE:WALL-INNER
G1 F2400 E17.8197
G1 F1500 X119.113 Y130.774 E17.85145
G1 X119.578 Y130.373 E17.88208
G1 X119.899 Y129.849 E17.91274
G1 X119.99 Y129.338 E17.93863
G1 X119.714 Y128.809 E17.9684
G1 X119.219 Y128.497 E17.99759
G1 X118.65 Y128.43 E18.02618
G1 X118.173 Y128.613 E18.05167
G1 X117.884 Y128.894 E18.07178
G1 X117.718 Y128.945 E18.08044
G1 X117.439 Y128.948 E18.09436
G1 X117.187 Y128.872 E18.10749
G1 X117.005 Y128.748 E18.11848
G1 X116.86 Y128.555 E18.13052
G1 X116.745 Y128.248 E18.14688
G1 X116.676 Y127.782 E18.17038
G1 X116.667 Y127.276 E18.19563
G1 X116.712 Y126.832 E18.21789
G1 X116.823 Y126.454 E18.23755
G1 X116.957 Y126.232 E18.25049
G1 X117.128 Y126.088 E18.26164
G1 X117.353 Y125.996 E18.27377
G1 X117.576 Y125.98 E18.28492
G1 X117.728 Y126.024 E18.29281
G1 X118.136 Y126.271 E18.31661
G1 X118.676 Y126.496 E18.3458
G1 X119.24 Y126.462 E18.37398
G1 X119.71 Y126.102 E18.40352
G1 X119.807 Y125.884 E18.41542
G1 X119.909 Y125.654 E18.42798
G1 X119.93 Y125.608 E18.4305
G1 X119.948 Y125.671 E18.43117
G1 X120.131 Y125.844 E18.43913
G1 X120.367 Y126.067 E18.45533
G1 X120.921 Y126.149 E18.48327
G1 X121.389 Y126.087 E18.50683
G1 X121.469 Y126.077 E18.51085
G1 X121.704 Y126.086 E18.52258
G1 X121.715 Y126.175 E18.52706
G1 X121.711 Y126.256 E18.5311
G1 X121.683 Y126.702 E18.5534
G1 X121.692 Y127.442 E18.59032
G1 X121.687 Y128.727 E18.65443
G1 X121.695 Y129.206 E18.67833
G1 X121.679 Y129.732 E18.70458
G1 X121.678 Y130.335 E18.73467
G1 X122.002 Y130.81 E18.76335
G1 X122.561 Y131.014 E18.79304
G1 X123.135 Y130.965 E18.82178
G1 X123.6 Y130.632 E18.85032
G1 X123.825 Y130.077 E18.88019
G1 X123.839 Y129.446 E18.91168
G1 X123.827 Y128.922 E18.93783
G1 X123.831 Y128.306 E18.96856
G1 X123.83 Y126.901 E19.03866
G1 X123.835 Y126.099 E19.07867
G1 X124.03 Y126.104 E19.0884
G1 X124.603 Y126.101 E19.11699
G1 X125.209 Y125.98 E19.14782
G1 X125.53 Y125.685 E19.16957
G1 X125.624 Y125.598 E19.17596
G1 X125.639 Y125.584 E19.17699
G1 X125.665 Y125.472 E19.18272
G1 X125.69 Y125.57 E19.18286
G1 X125.725 Y125.707 E19.18707
G1 X125.809 Y125.804 E19.19202
G1 X126.123 Y126.165 E19.21589
G1 X126.525 Y126.303 E19.2371
G1 X126.658 Y126.349 E19.24412
G1 X126.401 Y126.664 E19.25823
G1 X126.264 Y127.269 E19.28918
G1 X126.422 Y127.838 E19.31864
G1 X126.894 Y128.161 E19.34717
G1 X127.466 Y128.272 E19.37624
G1 X127.712 Y128.368 E19.38942
G1 X127.887 Y128.515 E19.40082
G1 X127.983 Y128.669 E19.40987
G1 X127.988 Y128.677 E19.41034
G1 X127.991 Y128.759 E19.41444
G1 X127.996 Y128.914 E19.42217
G1 X127.861 Y129.043 E19.43149
G1 X127.851 Y129.043 E19.43199
G1 X127.787 Y129.045 E19.43518
G1 X127.661 Y128.955 E19.44158
G1 X127.351 Y128.732 E19.46063
G1 X126.821 Y128.574 E19.48822
G1 X126.215 Y128.665 E19.51879
G1 X125.775 Y129.012 E19.54675
G1 X125.592 Y129.525 E19.57392
G1 X125.664 Y130.099 E19.60278
G1 X125.949 Y130.571 E19.63029
G1 X126.403 Y130.894 E19.65809
G1 X126.784 Y131.038 E19.67841
G1 X127.41 Y131.149 E19.71013
G1 X128.026 Y131.148 E19.74086
G1 X128.673 Y131.025 E19.77372
G1 X129.259 Y130.737 E19.80629
G1 X129.739 Y130.299 E19.83871
